X:1
T:The Mantle So Green
M:3/4
L:1/4
K:Bb
F/2-E/2| D B,3/2 B,/2| C G,3/2 B,/2| D B, C| B,2D/2-E/2| F B3/2 B/2|\
 A F3/2 F/4F/4| G E E| F2D/2-E/2| F B3/2 B/2| A F3/2 F/4F/4| G E E|\
 F2 F/2E/2| D B,3/2 B,/2| C G,3/2 B,/2| D B, C| B,2||
